CKC/img/icons/logo.svg

<svg width="183" height="43" viewBox="0 0 183 43" fill="none" xmlns="http://www.w3.org/2000/svg">
<path d="M54.507 36.708C52.8936 36.708 51.4416 36.3707 50.151 35.696C48.875 35.0067 47.8703 34.0533 47.137 32.836C46.4036 31.6187 46.037 30.24 46.037 28.7C46.037 27.16 46.4036 25.7813 47.137 24.564C47.8703 23.3467 48.875 22.4007 50.151 21.726C51.4416 21.0367 52.8936 20.692 54.507 20.692C55.915 20.692 57.1836 20.9413 58.313 21.44C59.4423 21.9387 60.381 22.6573 61.129 23.596L58.357 26.104C57.3596 24.9013 56.1496 24.3 54.727 24.3C53.891 24.3 53.143 24.4833 52.483 24.85C51.8376 25.2167 51.3316 25.7373 50.965 26.412C50.613 27.072 50.437 27.8347 50.437 28.7C50.437 29.5653 50.613 30.3353 50.965 31.01C51.3316 31.67 51.8376 32.1833 52.483 32.55C53.143 32.9167 53.891 33.1 54.727 33.1C56.1496 33.1 57.3596 32.4987 58.357 31.296L61.129 33.804C60.381 34.7427 59.4423 35.4613 58.313 35.96C57.1836 36.4587 55.915 36.708 54.507 36.708ZM69.3228 30.504H67.3428V36.4H63.0088V21H67.3428V26.984H69.4328L73.1068 21H77.6828L72.8648 28.436L77.7268 36.4H72.8208L69.3228 30.504ZM86.5402 36.708C84.9269 36.708 83.4749 36.3707 82.1842 35.696C80.9082 35.0067 79.9035 34.0533 79.1702 32.836C78.4369 31.6187 78.0702 30.24 78.0702 28.7C78.0702 27.16 78.4369 25.7813 79.1702 24.564C79.9035 23.3467 80.9082 22.4007 82.1842 21.726C83.4749 21.0367 84.9269 20.692 86.5402 20.692C87.9482 20.692 89.2169 20.9413 90.3462 21.44C91.4755 21.9387 92.4142 22.6573 93.1622 23.596L90.3902 26.104C89.3929 24.9013 88.1829 24.3 86.7602 24.3C85.9242 24.3 85.1762 24.4833 84.5162 24.85C83.8709 25.2167 83.3649 25.7373 82.9982 26.412C82.6462 27.072 82.4702 27.8347 82.4702 28.7C82.4702 29.5653 82.6462 30.3353 82.9982 31.01C83.3649 31.67 83.8709 32.1833 84.5162 32.55C85.1762 32.9167 85.9242 33.1 86.7602 33.1C88.1829 33.1 89.3929 32.4987 90.3902 31.296L93.1622 33.804C92.4142 34.7427 91.4755 35.4613 90.3462 35.96C89.2169 36.4587 87.9482 36.708 86.5402 36.708ZM94.3641 28.524H100.788V31.736H94.3641V28.524ZM114.751 24.454H107.777V36.4H103.487V21H114.773L114.751 24.454ZM123.762 21C125.155 21 126.365 21.2347 127.392 21.704C128.418 22.1587 129.21 22.8187 129.768 23.684C130.325 24.5347 130.604 25.5393 130.604 26.698C130.604 27.8567 130.325 28.8613 129.768 29.712C129.21 30.5627 128.418 31.2227 127.392 31.692C126.365 32.1467 125.155 32.374 123.762 32.374H121.078V36.4H116.722V21H123.762ZM123.498 28.942C124.392 28.942 125.067 28.7513 125.522 28.37C125.976 27.974 126.204 27.4167 126.204 26.698C126.204 25.9793 125.976 25.422 125.522 25.026C125.067 24.63 124.392 24.432 123.498 24.432H121.078V28.942H123.498ZM146.863 21L140.483 32.902C139.809 34.178 138.98 35.146 137.997 35.806C137.029 36.466 135.966 36.796 134.807 36.796C133.957 36.796 133.047 36.6053 132.079 36.224L133.113 33.012C133.715 33.188 134.228 33.276 134.653 33.276C135.079 33.276 135.453 33.1807 135.775 32.99C136.113 32.7993 136.421 32.4987 136.699 32.088L130.715 21H135.313L138.899 28.436L142.617 21H146.863ZM162.715 21V36.4H158.403V24.454H152.551V36.4H148.261V21H162.715ZM180.461 21V36.4H176.149V24.454H170.297V36.4H166.007V21H180.461Z" fill="black"/>
<path d="M7.32 38.9V26.07L29.79 9.66L35.98 14.19L42.19 9.66L29.79 0.6L0 22.35V38.9H7.32Z" fill="#F9600A"/>
<path d="M31.58 38.9V26.07L54.05 9.66H66.45L54.05 0.6L24.26 22.35V38.9H31.58Z" fill="#F9600A"/>
</svg>

<svg width="183" height="43" fill="none" xmlns="http://www.w3.org/2000/svg"><path d="M54.507 36.708c-1.613 0-3.065-.337-4.356-1.012a7.748 7.748 0 01-3.014-2.86c-.733-1.217-1.1-2.596-1.1-4.136s.367-2.919 1.1-4.136a7.591 7.591 0 013.014-2.838c1.29-.69 2.743-1.034 4.356-1.034 1.408 0 2.677.25 3.806.748a7.323 7.323 0 012.816 2.156l-2.772 2.508c-.997-1.203-2.207-1.804-3.63-1.804-.836 0-1.584.183-2.244.55a3.892 3.892 0 00-1.518 1.562c-.352.66-.528 1.423-.528 2.288 0 .865.176 1.635.528 2.31a3.93 3.93 0 001.518 1.54c.66.367 1.408.55 2.244.55 1.423 0 2.633-.601 3.63-1.804l2.772 2.508a7.323 7.323 0 01-2.816 2.156c-1.13.499-2.398.748-3.806.748zm14.816-6.204h-1.98V36.4h-4.334V21h4.334v5.984h2.09L73.107 21h4.576l-4.818 7.436 4.862 7.964H72.82l-3.498-5.896zm17.217 6.204c-1.613 0-3.065-.337-4.356-1.012a7.748 7.748 0 01-3.014-2.86c-.733-1.217-1.1-2.596-1.1-4.136s.367-2.919 1.1-4.136a7.591 7.591 0 013.014-2.838c1.29-.69 2.743-1.034 4.356-1.034 1.408 0 2.677.25 3.806.748a7.323 7.323 0 012.816 2.156l-2.772 2.508c-.997-1.203-2.207-1.804-3.63-1.804-.836 0-1.584.183-2.244.55a3.893 3.893 0 00-1.518 1.562c-.352.66-.528 1.423-.528 2.288 0 .865.176 1.635.528 2.31a3.93 3.93 0 001.518 1.54c.66.367 1.408.55 2.244.55 1.423 0 2.633-.601 3.63-1.804l2.772 2.508a7.323 7.323 0 01-2.816 2.156c-1.13.499-2.398.748-3.806.748zm7.824-8.184h6.424v3.212h-6.424v-3.212zm20.387-4.07h-6.974V36.4h-4.29V21h11.286l-.022 3.454zM123.762 21c1.393 0 2.603.235 3.63.704 1.026.455 1.818 1.115 2.376 1.98.557.85.836 1.855.836 3.014 0 1.159-.279 2.163-.836 3.014-.558.85-1.35 1.51-2.376 1.98-1.027.455-2.237.682-3.63.682h-2.684V36.4h-4.356V21h7.04zm-.264 7.942c.894 0 1.569-.19 2.024-.572.454-.396.682-.953.682-1.672s-.228-1.276-.682-1.672c-.455-.396-1.13-.594-2.024-.594h-2.42v4.51h2.42zM146.863 21l-6.38 11.902c-.674 1.276-1.503 2.244-2.486 2.904-.968.66-2.031.99-3.19.99-.85 0-1.76-.19-2.728-.572l1.034-3.212c.602.176 1.115.264 1.54.264.426 0 .8-.095 1.122-.286.338-.19.646-.491.924-.902L130.715 21h4.598l3.586 7.436L142.617 21h4.246zm15.852 0v15.4h-4.312V24.454h-5.852V36.4h-4.29V21h14.454zm17.746 0v15.4h-4.312V24.454h-5.852V36.4h-4.29V21h14.454z" fill="#000"/><path d="M7.32 38.9V26.07L29.79 9.66l6.19 4.53 6.21-4.53L29.79.6 0 22.35V38.9h7.32z" fill="#F9600A"/><path d="M31.58 38.9V26.07L54.05 9.66h12.4L54.05.6 24.26 22.35V38.9h7.32z" fill="#F9600A"/></svg>
